assets/resource-logos/pinnacle.svg

<?xml version="1.0" encoding="UTF-8"?> <svg xmlns="http://www.w3.org/2000/svg" width="193" height="45" viewBox="0 0 193 45" fill="none"><path d="M35.0598 0L23.5898 19.31L33.2598 35.6L38.7098 26.43L49.5998 44.77H61.6398L35.0598 0Z" fill="#0075A9"></path><path d="M19.35 12.1799L0 44.7699H8.47L23.59 19.3099L19.35 12.1799Z" fill="#6BC4E8"></path><path d="M23.5897 19.3101L8.46973 44.7701H27.8097L33.2597 35.6001L23.5897 19.3101Z" fill="#009ADE"></path><path d="M33.2598 35.5999L38.7098 44.7699H49.5998L38.7098 26.4299L33.2598 35.5999Z" fill="#009ADE"></path><path d="M27.8101 44.7701H38.7101L33.2601 35.6001L27.8101 44.7701Z" fill="#8DC6E8"></path><path d="M82.2999 20.9999C82.2999 20.3599 82.1099 19.8799 81.7299 19.5699C81.3499 19.2599 80.7999 19.0999 80.0999 19.0999H77.2299V22.9099H80.1899C80.7699 22.9099 81.2699 22.7399 81.6799 22.3899C82.0899 22.0499 82.2999 21.5799 82.2999 20.9999ZM85.8799 21.0699C85.8799 21.7899 85.7299 22.4599 85.4399 23.0699C85.1499 23.6799 84.7499 24.2099 84.2599 24.6499C83.7599 25.0899 83.1799 25.4399 82.4999 25.6999C81.8299 25.9499 81.1099 26.0799 80.3399 26.0799H77.2199V31.9099H73.6899V15.9299H80.2799C81.1199 15.9299 81.8899 16.0499 82.5699 16.2899C83.2499 16.5299 83.8499 16.8699 84.3399 17.3099C84.8299 17.7599 85.2099 18.2899 85.4799 18.9299C85.7499 19.5699 85.8799 20.2799 85.8799 21.0799" fill="#0C0F19"></path><path d="M92.99 15.9199H89.46V31.8999H92.99V15.9199Z" fill="#0C0F19"></path><path d="M107.87 31.8999L103.81 26.0199L101.44 22.2099L101.4 22.2399V31.8999H97.8599V15.9199H101.01L104.36 20.8099L107.44 25.6099L107.48 25.5899V15.9199H111.02V31.8999H107.87Z" fill="#0C0F19"></path><path d="M125.89 31.8999L121.83 26.0199L119.46 22.2099L119.42 22.2399V31.8999H115.88V15.9199H119.03L122.38 20.8099L125.46 25.6099L125.5 25.5899V15.9199H129.04V31.8999H125.89Z" fill="#0C0F19"></path><path d="M140.81 23.8199L139.87 20.6499H139.78L138.86 23.7699L138.26 25.6499H141.41L140.81 23.8099V23.8199ZM143.7 31.8999L142.51 28.6399H137.16L135.97 31.8999H132.25L138.45 15.9199H141.23L147.43 31.8999H143.71H143.7Z" fill="#0C0F19"></path><path d="M162.3 28.02C161.9 29.28 161.19 30.26 160.15 30.97C159.12 31.68 157.85 32.0401 156.35 32.0401C155.31 32.0401 154.4 31.89 153.63 31.58C152.86 31.27 152.22 30.85 151.71 30.29C151.2 29.74 150.82 29.08 150.57 28.32C150.32 27.55 150.19 26.71 150.19 25.79V22.03C150.19 21.2 150.31 20.42 150.57 19.67C150.82 18.92 151.2 18.26 151.71 17.68C152.22 17.11 152.86 16.65 153.63 16.31C154.4 15.97 155.31 15.8 156.35 15.8C157.88 15.8 159.15 16.17 160.17 16.91C161.19 17.65 161.9 18.64 162.29 19.86L158.94 21.05C158.82 20.5 158.53 20.04 158.09 19.66C157.65 19.28 157.06 19.1 156.32 19.1C155.88 19.1 155.49 19.17 155.17 19.32C154.85 19.47 154.58 19.66 154.37 19.91C154.16 20.15 153.99 20.43 153.89 20.75C153.78 21.06 153.73 21.38 153.73 21.7V26.04C153.73 26.39 153.78 26.73 153.89 27.05C154 27.37 154.16 27.65 154.37 27.9C154.58 28.14 154.85 28.34 155.17 28.5C155.49 28.65 155.87 28.73 156.32 28.73C157.04 28.73 157.62 28.54 158.08 28.17C158.53 27.79 158.82 27.32 158.94 26.74L162.29 28.03L162.3 28.02Z" fill="#0C0F19"></path><path d="M166.27 31.8999V15.9199H169.81V28.7299H177.56V31.8999H166.27Z" fill="#0C0F19"></path><path d="M181.42 31.8999V15.9199H192.71V19.0899H184.96V22.3299H191.57V25.3799H184.96V28.7299H192.71V31.8999H181.42Z" fill="#0C0F19"></path><path d="M77.0999 36.9001V44.9101H76.2499V36.9001H73.6699V36.1401H79.6499V36.9001H77.0999Z" fill="#0C0F19"></path><path d="M86.0502 38.4799C86.0502 38.1999 86.0002 37.9699 85.9102 37.7599C85.8102 37.5599 85.6801 37.3999 85.5201 37.2699C85.3601 37.1499 85.1601 37.0499 84.9501 36.9899C84.7301 36.9299 84.5002 36.8999 84.2402 36.8999H81.7802V40.1999H84.1902C84.7202 40.1999 85.1601 40.0499 85.5201 39.7599C85.8801 39.4699 86.0602 39.0399 86.0602 38.4799M85.8102 44.9099L84.0302 40.9499H81.7701V44.9099H80.9102V36.1299H84.4002C84.7602 36.1299 85.1002 36.1799 85.4002 36.2899C85.7102 36.3999 85.9701 36.5599 86.2001 36.7599C86.4301 36.9699 86.6002 37.2099 86.7302 37.4999C86.8602 37.7899 86.9202 38.1099 86.9202 38.4599C86.9202 39.0799 86.7302 39.5999 86.3602 40.0199C85.9902 40.4399 85.5002 40.7199 84.9002 40.8699L86.7701 44.8999H85.8002L85.8102 44.9099Z" fill="#0C0F19"></path><path d="M88.5898 44.9101V36.1401H94.0398V36.9201H89.4498V40.1001H93.3598V40.8501H89.4498V44.1301H94.0398V44.9101H88.5898Z" fill="#0C0F19"></path><path d="M98.3 37.2399C98.23 37.4599 98.13 37.7699 97.98 38.1799C97.84 38.5899 97.69 39.0299 97.53 39.4799C97.35 39.9899 97.17 40.4699 97.01 40.9499C96.85 41.4299 96.71 41.8099 96.6 42.0999H100.04L99.06 39.2599L98.34 37.2299H98.3V37.2399ZM101.02 44.9099C100.89 44.5599 100.77 44.2199 100.65 43.8799C100.53 43.5399 100.41 43.1899 100.29 42.8299H96.36C96.23 43.1799 96.11 43.5299 95.99 43.8799C95.87 44.2299 95.75 44.5699 95.63 44.9099H94.73C95.26 43.4399 95.79 41.9799 96.33 40.5199C96.86 39.0699 97.4 37.5999 97.94 36.1299H98.72L101.94 44.9099H101.03H101.02Z" fill="#0C0F19"></path><path d="M105.27 36.9001V44.9101H104.42V36.9001H101.85V36.1401H107.82V36.9001H105.27Z" fill="#0C0F19"></path><path d="M115.79 44.9099V38.0599H115.77L114.79 40.2799C114.75 40.3699 114.69 40.4999 114.6 40.6799C114.52 40.8499 114.42 41.0499 114.32 41.2599C114.22 41.4699 114.11 41.6999 114 41.9299C113.89 42.1599 113.79 42.3799 113.69 42.5999C113.59 42.8099 113.5 43.0099 113.42 43.1799C113.34 43.3499 113.28 43.4799 113.24 43.5799H112.5L110.94 40.2299C110.89 40.1199 110.82 39.9699 110.73 39.7699C110.64 39.5699 110.55 39.3699 110.45 39.1499C110.36 38.9399 110.27 38.7299 110.17 38.5399C110.08 38.3499 110.01 38.1899 109.96 38.0699H109.93V44.9199H109.07V36.1399H109.94C109.99 36.2599 110.06 36.4199 110.17 36.6399C110.27 36.8499 110.38 37.0899 110.5 37.3599C110.62 37.6199 110.75 37.8999 110.88 38.1999C111.01 38.4999 111.14 38.7699 111.27 39.0399C111.4 39.2999 111.51 39.5499 111.6 39.7599C111.7 39.9799 111.77 40.1399 111.83 40.2499C111.88 40.3499 111.95 40.5099 112.05 40.7199C112.15 40.9299 112.24 41.1599 112.34 41.3899C112.44 41.6199 112.54 41.8399 112.63 42.0599C112.73 42.2699 112.8 42.4299 112.85 42.5299H112.88L113.9 40.2599C113.95 40.1399 114.03 39.9799 114.13 39.7599C114.23 39.5499 114.34 39.2999 114.47 39.0299C114.6 38.7599 114.72 38.4799 114.86 38.1899C114.99 37.8999 115.12 37.6199 115.24 37.3499C115.37 37.0799 115.48 36.8399 115.57 36.6299C115.67 36.4199 115.74 36.2499 115.8 36.1299H116.63V44.9099H115.77H115.79Z" fill="#0C0F19"></path><path d="M118.69 44.9101V36.1401H124.14V36.9201H119.55V40.1001H123.46V40.8501H119.55V44.1301H124.14V44.9101H118.69Z" fill="#0C0F19"></path><path d="M128.08 39.9699L126.57 37.5999H126.56C126.56 37.5999 126.56 37.5999 126.55 37.5999V44.8999H125.69V36.1199H126.55L129.72 40.9599L131.3 43.4699L131.33 43.4399V36.1099H132.16V44.8899H131.33L128.09 39.9499L128.08 39.9699Z" fill="#0C0F19"></path><path d="M136.83 36.9001V44.9101H135.98V36.9001H133.4V36.1401H139.38V36.9001H136.83Z" fill="#0C0F19"></path><path d="M149.27 43.1701C149.05 43.7301 148.7 44.1801 148.21 44.5001C147.72 44.8201 147.13 44.9901 146.45 44.9901C145.91 44.9901 145.45 44.9001 145.06 44.7301C144.67 44.5601 144.35 44.3201 144.1 44.0301C143.85 43.7401 143.66 43.3901 143.54 43.0001C143.42 42.6101 143.36 42.2001 143.36 41.7701V39.2601C143.36 38.8301 143.42 38.4201 143.54 38.0401C143.66 37.6601 143.85 37.3201 144.11 37.0301C144.36 36.7401 144.69 36.5001 145.07 36.3301C145.46 36.1601 145.92 36.0701 146.45 36.0701C147.13 36.0701 147.71 36.2301 148.19 36.5501C148.67 36.8701 149.02 37.2901 149.25 37.8201L148.45 38.1901C148.29 37.8001 148.04 37.4901 147.7 37.2401C147.36 37.0001 146.95 36.8701 146.46 36.8701C146.06 36.8701 145.72 36.9401 145.44 37.0701C145.15 37.2101 144.92 37.3801 144.74 37.6101C144.56 37.8301 144.43 38.0901 144.34 38.3801C144.26 38.6701 144.21 38.9801 144.21 39.2901V41.7201C144.21 42.0401 144.25 42.3501 144.34 42.6401C144.42 42.9401 144.55 43.1901 144.73 43.4201C144.91 43.6501 145.14 43.8301 145.42 43.9701C145.71 44.1101 146.05 44.1801 146.45 44.1801C146.95 44.1801 147.36 44.0501 147.7 43.8001C148.04 43.5501 148.29 43.2101 148.46 42.7801L149.25 43.1601L149.27 43.1701Z" fill="#0C0F19"></path><path d="M150.65 44.9101V36.1401H156.1V36.9201H151.51V40.1001H155.42V40.8501H151.51V44.1301H156.1V44.9101H150.65Z" fill="#0C0F19"></path><path d="M160.04 39.9699L158.53 37.5999H158.52C158.52 37.5999 158.52 37.5999 158.51 37.5999V44.8999H157.65V36.1199H158.51L161.68 40.9599L163.26 43.4699L163.29 43.4399V36.1099H164.12V44.8899H163.29L160.05 39.9499L160.04 39.9699Z" fill="#0C0F19"></path><path d="M168.8 36.9001V44.9101H167.94V36.9001H165.37V36.1401H171.35V36.9001H168.8Z" fill="#0C0F19"></path><path d="M172.59 44.9101V36.1401H178.04V36.9201H173.45V40.1001H177.36V40.8501H173.45V44.1301H178.04V44.9101H172.59Z" fill="#0C0F19"></path><path d="M184.72 38.4799C184.72 38.1999 184.67 37.9699 184.57 37.7599C184.47 37.5599 184.34 37.3999 184.18 37.2699C184.02 37.1499 183.83 37.0499 183.61 36.9899C183.39 36.9299 183.16 36.8999 182.9 36.8999H180.44V40.1999H182.85C183.38 40.1999 183.82 40.0499 184.18 39.7599C184.54 39.4699 184.72 39.0399 184.72 38.4799ZM184.48 44.9099L182.7 40.9499H180.44V44.9099H179.58V36.1299H183.07C183.43 36.1299 183.77 36.1799 184.07 36.2899C184.38 36.3999 184.64 36.5599 184.87 36.7599C185.1 36.9699 185.27 37.2099 185.4 37.4999C185.53 37.7899 185.59 38.1099 185.59 38.4599C185.59 39.0799 185.41 39.5999 185.04 40.0199C184.67 40.4399 184.18 40.7199 183.58 40.8699L185.45 44.8999H184.48V44.9099Z" fill="#0C0F19"></path><path d="M192.74 42.5101C192.74 42.8901 192.67 43.2301 192.52 43.5401C192.37 43.8501 192.16 44.1101 191.9 44.3201C191.63 44.5301 191.3 44.7001 190.92 44.8201C190.54 44.9401 190.11 45.0001 189.65 45.0001C189.1 45.0001 188.53 44.9101 187.97 44.7401C187.4 44.5601 186.89 44.2901 186.44 43.9301L186.98 43.2401C187.35 43.5501 187.77 43.7901 188.23 43.9501C188.69 44.1101 189.18 44.2001 189.69 44.2001C189.99 44.2001 190.28 44.1701 190.54 44.1001C190.8 44.0301 191.04 43.9301 191.23 43.7901C191.43 43.6501 191.58 43.4801 191.69 43.2701C191.8 43.0601 191.85 42.8101 191.85 42.5101C191.85 42.2101 191.79 41.9701 191.66 41.7801C191.53 41.5901 191.37 41.4301 191.16 41.3101C190.95 41.1901 190.72 41.0901 190.46 41.0201C190.2 40.9501 189.93 40.8901 189.65 40.8401C189.31 40.7801 188.98 40.7101 188.65 40.6301C188.32 40.5501 188.03 40.4201 187.77 40.2601C187.51 40.1001 187.31 39.8801 187.15 39.6001C186.99 39.3201 186.91 38.9601 186.91 38.5201C186.91 38.1301 186.98 37.7901 187.12 37.4901C187.26 37.1901 187.46 36.9401 187.71 36.7301C187.96 36.5201 188.26 36.3601 188.61 36.2501C188.95 36.1401 189.33 36.0901 189.73 36.0901C190.8 36.0901 191.69 36.3501 192.4 36.8601L191.92 37.5801C191.59 37.3801 191.25 37.2201 190.88 37.1001C190.52 36.9801 190.13 36.9201 189.72 36.9201C189.15 36.9201 188.68 37.0501 188.31 37.3201C187.94 37.5901 187.76 37.9901 187.76 38.5201C187.76 38.8001 187.82 39.0201 187.94 39.2001C188.06 39.3701 188.23 39.5101 188.44 39.6301C188.65 39.7401 188.91 39.8401 189.2 39.9101C189.49 39.9801 189.81 40.0501 190.16 40.1201C190.46 40.1901 190.77 40.2701 191.07 40.3501C191.38 40.4401 191.65 40.5701 191.89 40.7401C192.13 40.9101 192.33 41.1401 192.48 41.4301C192.63 41.7201 192.71 42.0901 192.71 42.5401" fill="#0C0F19"></path></svg>

<svg xmlns="http://www.w3.org/2000/svg" fill="none" viewBox="0 0 193 45">
  <path fill="#0075A9" d="m35.0598 0-11.47 19.31 9.67 16.29 5.45-9.17 10.89 18.34h12.04L35.0598 0Z"/>
  <path fill="#6BC4E8" d="M19.35 12.1799 0 44.7699h8.47l15.12-25.46-4.24-7.13Z"/>
  <path fill="#009ADE" d="m23.5897 19.3101-15.11997 25.46H27.8097l5.45-9.17-9.67-16.29ZM33.2598 35.5999l5.45 9.17h10.89l-10.89-18.34-5.45 9.17Z"/>
  <path fill="#8DC6E8" d="M27.8101 44.7701h10.9l-5.45-9.17-5.45 9.17Z"/>
  <path fill="#0C0F19" d="M82.2999 20.9999c0-.64-.19-1.12-.57-1.43-.38-.31-.93-.47-1.63-.47h-2.87v3.81h2.96c.58 0 1.08-.17 1.49-.52.41-.34.62-.81.62-1.39Zm3.58.07c0 .72-.15 1.39-.44 2-.29.61-.69 1.14-1.18 1.58-.5.44-1.08.79-1.76 1.05-.67.25-1.39.38-2.16.38h-3.12v5.83h-3.53v-15.98h6.59c.84 0 1.61.12 2.29.36.68.24 1.28.58 1.77 1.02.49.45.87.98 1.14 1.62.27.64.4 1.35.4 2.15M92.99 15.9199h-3.53v15.98h3.53v-15.98ZM107.87 31.8999l-4.06-5.88-2.37-3.81-.04.03v9.66h-3.5401v-15.98h3.1501l3.35 4.89 3.08 4.8.04-.02v-9.67h3.54v15.98h-3.15ZM125.89 31.8999l-4.06-5.88-2.37-3.81-.04.03v9.66h-3.54v-15.98h3.15l3.35 4.89 3.08 4.8.04-.02v-9.67h3.54v15.98h-3.15ZM140.81 23.8199l-.94-3.17h-.09l-.92 3.12-.6 1.88h3.15l-.6-1.84v.01Zm2.89 8.08-1.19-3.26h-5.35l-1.19 3.26h-3.72l6.2-15.98h2.78l6.2 15.98h-3.73ZM162.3 28.02c-.4 1.26-1.11 2.24-2.15 2.95-1.03.71-2.3 1.0701-3.8 1.0701-1.04 0-1.95-.1501-2.72-.4601-.77-.31-1.41-.73-1.92-1.29-.51-.55-.89-1.21-1.14-1.97-.25-.77-.38-1.61-.38-2.53v-3.76c0-.83.12-1.61.38-2.36.25-.75.63-1.41 1.14-1.99.51-.57 1.15-1.03 1.92-1.37.77-.34 1.68-.51 2.72-.51 1.53 0 2.8.37 3.82 1.11 1.02.74 1.73 1.73 2.12 2.95l-3.35 1.19c-.12-.55-.41-1.01-.85-1.39-.44-.38-1.03-.56-1.77-.56-.44 0-.83.07-1.15.22-.32.15-.59.34-.8.59-.21.24-.38.52-.48.84-.11.31-.16.63-.16.95v4.34c0 .35.05.69.16 1.01.11.32.27.6.48.85.21.24.48.44.8.6.32.15.7.23 1.15.23.72 0 1.3-.19 1.76-.56.45-.38.74-.85.86-1.43l3.35 1.29.01-.01ZM166.27 31.8999v-15.98h3.54v12.81h7.75v3.17h-11.29ZM181.42 31.8999v-15.98h11.29v3.17h-7.75v3.24h6.61v3.05h-6.61v3.35h7.75v3.17h-11.29ZM77.0999 36.9001v8.01h-.85v-8.01h-2.58v-.76h5.98v.76h-2.55ZM86.0502 38.4799c0-.28-.05-.51-.14-.72-.1-.2-.2301-.36-.3901-.49-.16-.12-.36-.22-.57-.28-.22-.06-.4499-.09-.7099-.09h-2.46v3.3h2.41c.53 0 .9699-.15 1.3299-.44.36-.29.5401-.72.5401-1.28m-.25 6.43-1.78-3.96h-2.2601v3.96h-.8599v-8.78h3.49c.36 0 .7.05 1 .16.31.11.5699.27.7999.47.23.21.4001.45.5301.74s.19.61.19.96c0 .62-.19 1.14-.56 1.56-.37.42-.86.7-1.46.85l1.8699 4.03h-.9699l.01.01ZM88.5898 44.9101v-8.77h5.45v.78h-4.59v3.18h3.91v.75h-3.91v3.28h4.59v.78h-5.45ZM98.3 37.2399c-.07.22-.17.53-.32.94-.14.41-.29.85-.45 1.3-.18.51-.36.99-.52 1.47-.16.48-.3.86-.41 1.15h3.44l-.98-2.84-.72-2.03h-.04v.01Zm2.72 7.67c-.13-.35-.25-.69-.37-1.03-.12-.34-.24-.69-.36-1.05h-3.93c-.13.35-.25.7-.37 1.05-.12.35-.24.69-.36 1.03h-.9c.53-1.47 1.06-2.93 1.6-4.39.53-1.45 1.07-2.92 1.61-4.39h.78l3.22 8.78h-.92ZM105.27 36.9001v8.01h-.85v-8.01h-2.57v-.76h5.97v.76h-2.55ZM115.79 44.9099v-6.85h-.02l-.98 2.22c-.04.09-.1.22-.19.4-.08.17-.18.37-.28.58-.1.21-.21.44-.32.67-.11.23-.21.45-.31.67-.1.21-.19.41-.27.58-.08.17-.14.3-.18.4h-.74l-1.56-3.35c-.05-.11-.12-.26-.21-.46s-.18-.4-.28-.62c-.09-.21-.18-.42-.28-.61-.09-.19-.16-.35-.21-.47h-.03v6.85h-.86v-8.78h.87c.05.12.12.28.23.5.1.21.21.45.33.72.12.26.25.54.38.84.13.3.26.57.39.84.13.26.24.51.33.72.1.22.17.38.23.49.05.1.12.26.22.47.1.21.19.44.29.67.1.23.2.45.29.67.1.21.17.37.22.47h.03l1.02-2.27c.05-.12.13-.28.23-.5.1-.21.21-.46.34-.73.13-.27.25-.55.39-.84.13-.29.26-.57.38-.84.13-.27.24-.51.33-.72.1-.21.17-.38.23-.5h.83v8.78h-.86.02ZM118.69 44.9101v-8.77h5.45v.78h-4.59v3.18h3.91v.75h-3.91v3.28h4.59v.78h-5.45ZM128.08 39.9699l-1.51-2.37h-.02v7.3h-.86v-8.78h.86l3.17 4.84 1.58 2.51.03-.03v-7.33h.83v8.78h-.83l-3.24-4.94-.01.02ZM136.83 36.9001v8.01h-.85v-8.01h-2.58v-.76h5.98v.76h-2.55ZM149.27 43.1701c-.22.56-.57 1.01-1.06 1.33-.49.32-1.08.49-1.76.49-.54 0-1-.09-1.39-.26-.39-.17-.71-.41-.96-.7s-.44-.64-.56-1.03c-.12-.39-.18-.8-.18-1.23v-2.51c0-.43.06-.84.18-1.22s.31-.72.57-1.01c.25-.29.58-.53.96-.7.39-.17.85-.26 1.38-.26.68 0 1.26.16 1.74.48.48.32.83.74 1.06 1.27l-.8.37c-.16-.39-.41-.7-.75-.95-.34-.24-.75-.37-1.24-.37-.4 0-.74.07-1.02.2-.29.14-.52.31-.7.54-.18.22-.31.48-.4.77-.08.29-.13.6-.13.91v2.43c0 .32.04.63.13.92.08.3.21.55.39.78.18.23.41.41.69.55.29.14.63.21 1.03.21.5 0 .91-.13 1.25-.38.34-.25.59-.59.76-1.02l.79.38.02.01ZM150.65 44.9101v-8.77h5.45v.78h-4.59v3.18h3.91v.75h-3.91v3.28h4.59v.78h-5.45ZM160.04 39.9699l-1.51-2.37h-.02v7.3h-.86v-8.78h.86l3.17 4.84 1.58 2.51.03-.03v-7.33h.83v8.78h-.83l-3.24-4.94-.01.02ZM168.8 36.9001v8.01h-.86v-8.01h-2.57v-.76h5.98v.76h-2.55ZM172.59 44.9101v-8.77h5.45v.78h-4.59v3.18h3.91v.75h-3.91v3.28h4.59v.78h-5.45ZM184.72 38.4799c0-.28-.05-.51-.15-.72-.1-.2-.23-.36-.39-.49-.16-.12-.35-.22-.57-.28-.22-.06-.45-.09-.71-.09h-2.46v3.3h2.41c.53 0 .97-.15 1.33-.44.36-.29.54-.72.54-1.28Zm-.24 6.43-1.78-3.96h-2.26v3.96h-.86v-8.78h3.49c.36 0 .7.05 1 .16.31.11.57.27.8.47.23.21.4.45.53.74s.19.61.19.96c0 .62-.18 1.14-.55 1.56-.37.42-.86.7-1.46.85l1.87 4.03h-.97v.01ZM192.74 42.5101c0 .38-.07.72-.22 1.03-.15.31-.36.57-.62.78-.27.21-.6.38-.98.5s-.81.18-1.27.18c-.55 0-1.12-.09-1.68-.26-.57-.18-1.08-.45-1.53-.81l.54-.69c.37.31.79.55 1.25.71.46.16.95.25 1.46.25.3 0 .59-.03.85-.1s.5-.17.69-.31c.2-.14.35-.31.46-.52.11-.21.16-.46.16-.76s-.06-.54-.19-.73c-.13-.19-.29-.35-.5-.47-.21-.12-.44-.22-.7-.29-.26-.07-.53-.13-.81-.18-.34-.06-.67-.13-1-.21-.33-.08-.62-.21-.88-.37s-.46-.38-.62-.66c-.16-.28-.24-.64-.24-1.08 0-.39.07-.73.21-1.03.14-.3.34-.55.59-.76.25-.21.55-.37.9-.48.34-.11.72-.16 1.12-.16 1.07 0 1.96.26 2.67.77l-.48.72c-.33-.2-.67-.36-1.04-.48-.36-.12-.75-.18-1.16-.18-.57 0-1.04.13-1.41.4-.37.27-.55.67-.55 1.2 0 .28.06.5.18.68.12.17.29.31.5.43.21.11.47.21.76.28.29.07.61.14.96.21.3.07.61.15.91.23.31.09.58.22.82.39s.44.4.59.69c.15.29.23.66.23 1.11"/>
</svg>
